X:18
T:Reel 18
M:4/4
K:Gmaj
L:1/8
ge|d>B (3BBB eBce|dcBG ADFA|dcBA Ggfg|adef gfge:||2gaba g2|dc|dcde fgaf|dfaf gedc|Bcde fgfg|afaf gbag|f<dde fdec|dBGB defg|egfa gbac'|bgaf g2|
